X: 022
T: Miss Polly Skiner's Reel
R: reel
B: Robert Bremner "A Collection of Scots Reels or Country Dances" p.2 #2
S: http://imslp.org/wiki/A_Collection_of_Scots_Reels_or_Country_Dances_(Bremner,_Robert)
Z: 2013 John Chambers <jc:trillian.mit.edu>
M: C|
L: 1/8
K: D
% - - - - - - - - - - - - - - - - - - - - - - - - -
V: 1
   F | DdFd E/E/E EF | DdFd DdFd | (e/d/c/B/ d)F E/E/E EF | DdFA D/D/D D :|
|: f | (d/e/f/g/ a)f geef | (d/e/f/g/ a)f bgaf | gefd geef | (d/c/B/A/ d)F D/D/D D :|
% - - - - - - - - - - - - - - - - - - - - - - - - -
V: 2 clef=bass middle=d
z |\
d2d2 e2e2 | d2d2 d2d2 |\
d2d2 e2e2 | d2A2 D2 D :|\
|: z |
d2d2 e2e2 | d2d2 g2f2 | e2d2 e2e2 | d2A2 D2D :|
% - - - - - - - - - - - - - - - - - - - - - - - - -

%%sep 1 1 500
%%sep 1 1 500
